symbols/web/play_circle/materialsymbolsrounded/play_circle_wght100gradN25fill1_40px.svg

<svg xmlns="http://www.w3.org/2000/svg" height="40" width="40"><path d="M16.958 16.708v6.542q0 .708.584 1.021.583.312 1.166-.063l5.209-3.291q.5-.334.5-.938 0-.604-.5-.937l-5.209-3.25q-.583-.375-1.166-.084-.584.292-.584 1ZM20 34.417q-3 0-5.625-1.125t-4.583-3.084q-1.959-1.958-3.084-4.583T5.583 20q0-3 1.125-5.625t3.084-4.583q1.958-1.959 4.583-3.084T20 5.583q3 0 5.625 1.125t4.583 3.084q1.959 1.958 3.084 4.583T34.417 20q0 3-1.125 5.625t-3.084 4.583q-1.958 1.959-4.583 3.084T20 34.417Z"/></svg>

<svg xmlns="http://www.w3.org/2000/svg" height="40" width="40"><path d="M16.958 16.708V23.25Q16.958 23.958 17.542 24.271Q18.125 24.583 18.708 24.208L23.917 20.917Q24.417 20.583 24.417 19.979Q24.417 19.375 23.917 19.042L18.708 15.792Q18.125 15.417 17.542 15.708Q16.958 16 16.958 16.708ZM20 34.417Q17 34.417 14.375 33.292Q11.75 32.167 9.792 30.208Q7.833 28.25 6.708 25.625Q5.583 23 5.583 20Q5.583 17 6.708 14.375Q7.833 11.75 9.792 9.792Q11.75 7.833 14.375 6.708Q17 5.583 20 5.583Q23 5.583 25.625 6.708Q28.25 7.833 30.208 9.792Q32.167 11.75 33.292 14.375Q34.417 17 34.417 20Q34.417 23 33.292 25.625Q32.167 28.25 30.208 30.208Q28.25 32.167 25.625 33.292Q23 34.417 20 34.417Z"/></svg>
